X:1
T:Reynoldstone, 77.77.77
T:Timothy Richard Matthews (1826-1910)
T:Reynoldstone, 77.77.77
T:Public Domain
C:Timothy Richard Matthews (1826-1910)
Z:Public Domain
%%score ( 1 2 ) ( 3 4 )
L:1/8
M:4/4
K:C
V:1 treble 
V:2 treble 
V:3 bass 
V:4 bass 
V:1
 [CG]2 [CA]2 [CG]2 [CE]2 | [CD]2 [B,D]2 [CE]4 | [Cc]2 [DB]2 [EA]2 (B,C) | [DG]2 [D^F]2 [DG]4 | %4
 [Gd]2 [Gd]2 [Gc]2 [FB]2 | [Gc]2 [FA]2 [EG]4 | [Gd]2 G2 [^Fc]2 [GB]2 | [EA]2 (DC) [B,G]4 | %8
 [B,D]2 [CE]2 [DF]2 [EG]2 | [FB]3 [FA] [FG]4 | [EG]2 (FE) [DG]2 [CE]2 | [CD]2 [B,D]2 C4 |] %12
V:2
 x8 | x8 | x6 G2 | x8 | x8 | x8 | x2 G2 x4 | x2 ^F2 x4 | x8 | x8 | x2 A2 x4 | x4 C4 |] %12
V:3
 [C,E,]2 F,2 [E,G,]2 [C,G,]2 | [F,A,]2 G,2 [C,G,]4 | [A,,^F,]2 [B,,G,]2 [C,C]2 (G,A,) | %3
 [D,B,]2 [D,A,]2 [G,,B,]4 | [G,B,]2 [F,B,]2 [E,C]2 [D,D]2 | [E,C]2 [F,C]2 [C,C]4 | %6
 [B,,D]2 [B,D]2 [A,C]2 [G,D]2 | [C,C]2 [D,A,]2 [G,,G,]4 | [F,G,]2 [E,G,]2 [D,G,]2 [C,G,]2 | %9
 [G,,D]3 [G,,C] [G,,B,]4 | [C,C]2 [F,C]2 [G,B,]2 [C,G,]2 | [F,,A,]2 (G,F,) [C,E,]4 |] %12
V:4
 x2 F,2 x4 | x2 G,2 x4 | x6 E,2 | x8 | x8 | x8 | x8 | x8 | x8 | x8 | x8 | x2 G,,2 x4 |] %12

